assets/Shooting star/Flat/shooting_star_flat.svg

<svg width="32" height="32" viewBox="0 0 32 32" fill="none" xmlns="http://www.w3.org/2000/svg">
<path d="M26.33 30H5.67C3.64 30 2 28.36 2 26.33V5.67C2 3.64 3.64 2 5.67 2H19.316L24.9671 4.03763L28.0109 6.20831L30 13.6299V26.33C30 28.36 28.36 30 26.33 30Z" fill="#533566"/>
<path d="M8.98999 5.5C8.98999 5.77614 8.76613 6 8.48999 6C8.21385 6 7.98999 5.77614 7.98999 5.5C7.98999 5.22386 8.21385 5 8.48999 5C8.76613 5 8.98999 5.22386 8.98999 5.5ZM5.48999 11C5.76613 11 5.98999 10.7761 5.98999 10.5C5.98999 10.2239 5.76613 10 5.48999 10C5.21385 10 4.98999 10.2239 4.98999 10.5C4.98999 10.7761 5.21385 11 5.48999 11ZM24.99 22.5C24.99 22.7761 24.7661 23 24.49 23C24.2138 23 23.99 22.7761 23.99 22.5C23.99 22.2239 24.2138 22 24.49 22C24.7661 22 24.99 22.2239 24.99 22.5ZM23.99 26.5C23.99 26.7761 23.7661 27 23.49 27C23.2138 27 22.99 26.7761 22.99 26.5C22.99 26.2239 23.2138 26 23.49 26C23.7661 26 23.99 26.2239 23.99 26.5ZM4.48999 25C4.76613 25 4.98999 24.7761 4.98999 24.5C4.98999 24.2239 4.76613 24 4.48999 24C4.21385 24 3.98999 24.2239 3.98999 24.5C3.98999 24.7761 4.21385 25 4.48999 25ZM27.99 26.5C27.99 26.7761 27.7661 27 27.49 27C27.2138 27 26.99 26.7761 26.99 26.5C26.99 26.2239 27.2138 26 27.49 26C27.7661 26 27.99 26.2239 27.99 26.5Z" fill="#E1D8EC"/>
<path d="M30 5.67C30 3.64 28.36 2 26.33 2H19.29L9.25 11.6L19.64 24L30 13.64V5.67V5.67Z" fill="#A38439"/>
<path d="M11.0301 11.82L13.1101 13.69C13.5001 14.04 14.0301 14.17 14.5401 14.04L17.2601 13.35C18.4901 13.04 19.56 14.24 19.1 15.43L18.0101 18.25C17.8301 18.71 17.8801 19.23 18.1501 19.65L19.7601 22.2C20.4601 23.3 19.5701 24.72 18.2801 24.58L15.63 24.3C15.1 24.24 14.57 24.47 14.24 24.89L12.6 26.99C11.8 28.02 10.1701 27.67 9.86006 26.4L9.14006 23.47C9.02006 22.99 8.68005 22.59 8.23005 22.4L5.44005 21.23C4.27005 20.74 4.14004 19.13 5.22004 18.46L7.61006 16.98C8.05006 16.71 8.33005 16.23 8.35005 15.71L8.45006 12.92C8.48006 11.6 10.0401 10.94 11.0301 11.82Z" fill="#FCD53F"/>
</svg>

<svg xmlns="http://www.w3.org/2000/svg" width="32" height="32" fill="none"><path fill="#533566" d="M26.33 30H5.67C3.64 30 2 28.36 2 26.33V5.67C2 3.64 3.64 2 5.67 2h13.646l5.651 2.038 3.044 2.17L30 13.63v12.7c0 2.03-1.64 3.67-3.67 3.67Z"/><path fill="#E1D8EC" d="M8.99 5.5a.5.5 0 1 1-1 0 .5.5 0 0 1 1 0ZM5.49 11a.5.5 0 1 0 0-1 .5.5 0 0 0 0 1Zm19.5 11.5a.5.5 0 1 1-1 0 .5.5 0 0 1 1 0Zm-1 4a.5.5 0 1 1-1 0 .5.5 0 0 1 1 0ZM4.49 25a.5.5 0 1 0 0-1 .5.5 0 0 0 0 1Zm23.5 1.5a.5.5 0 1 1-1 0 .5.5 0 0 1 1 0Z"/><path fill="#A38439" d="M30 5.67C30 3.64 28.36 2 26.33 2h-7.04L9.25 11.6 19.64 24 30 13.64V5.67Z"/><path fill="#FCD53F" d="m11.03 11.82 2.08 1.87c.39.35.92.48 1.43.35l2.72-.69c1.23-.31 2.3.89 1.84 2.08l-1.09 2.82c-.18.46-.13.98.14 1.4l1.61 2.55c.7 1.1-.19 2.52-1.48 2.38l-2.65-.28a1.56 1.56 0 0 0-1.39.59l-1.64 2.1c-.8 1.03-2.43.68-2.74-.59l-.72-2.93a1.58 1.58 0 0 0-.91-1.07l-2.79-1.17c-1.17-.49-1.3-2.1-.22-2.77l2.39-1.48c.44-.27.72-.75.74-1.27l.1-2.79c.03-1.32 1.59-1.98 2.58-1.1Z"/></svg>
